assets/sonr-icons/cloud-lock.svg

<svg xmlns="http://www.w3.org/2000/svg" width="24" height="24" fill="none" viewBox="0 0 24 24"><path fill="#000" d="M18.42 6.71994C17.314 4.22294 14.857 2.51294 12.002 2.51294C8.45399 2.51294 5.524 5.15194 5.065 8.57394L5.061 8.60994C3.295 9.05094 2.008 10.6229 2.008 12.4969C2.008 14.2309 3.111 15.7069 4.653 16.2619L4.681 16.2709C4.776 16.3019 4.886 16.3199 5 16.3209C5.048 16.3289 5.104 16.3339 5.161 16.3339C5.72 16.3339 6.174 15.8799 6.174 15.3209C6.174 14.8179 5.807 14.4009 5.327 14.3219L5.321 14.3209C4.563 14.0419 4.027 13.3369 4.001 12.5049V12.5019C4.001 11.3969 4.897 10.5019 6.001 10.5019C6.553 10.5019 7.001 10.0539 7.001 9.50194C7.007 6.74494 9.243 4.51294 12.001 4.51294C14.182 4.51294 16.037 5.90894 16.72 7.85694L16.731 7.89194C16.849 8.23894 17.144 8.49694 17.505 8.56094L17.511 8.56194C18.923 8.82394 19.977 10.0459 19.977 11.5139C19.977 12.6049 19.395 13.5589 18.525 14.0839L18.511 14.0919C18.208 14.2679 18.008 14.5909 18.008 14.9619C18.008 15.5159 18.457 15.9659 19.011 15.9659C19.195 15.9659 19.367 15.9169 19.516 15.8299L19.511 15.8319C21.01 14.9499 22.001 13.3439 22.001 11.5079C22.001 11.5059 22.001 11.5039 22.001 11.5019C21.994 9.25294 20.503 7.35294 18.457 6.73094L18.422 6.72194L18.42 6.71994ZM15 15.7199V14.4999C15 12.8429 13.657 11.4999 12 11.4999C10.343 11.4999 9 12.8429 9 14.4999V15.6799C7.837 16.1099 7.023 17.2109 7.023 18.4999C7.023 20.1489 8.353 21.4859 9.998 21.4999H13.999C15.646 21.4859 16.976 20.1489 16.976 18.4999C16.976 17.2099 16.162 16.1099 15.02 15.6869L14.999 15.6799L15 15.7199ZM11 14.4999C11 13.9479 11.448 13.4999 12 13.4999C12.552 13.4999 13 13.9479 13 14.4999V15.4999H11V14.4999ZM14 19.4999H10C9.448 19.4999 9 19.0519 9 18.4999C9 17.9479 9.448 17.4999 10 17.4999H14C14.552 17.4999 15 17.9479 15 18.4999C15 19.0519 14.552 19.4999 14 19.4999Z"/></svg>

<svg xmlns="http://www.w3.org/2000/svg" width="24" height="24" fill="none"><path fill="currentColor" d="M18.42 6.72c-1.106-2.497-3.563-4.207-6.418-4.207a7 7 0 0 0-6.937 6.06l-.004.037a4.01 4.01 0 0 0-3.053 3.887 4 4 0 0 0 2.645 3.765l.028.009c.095.03.205.049.319.05a1.014 1.014 0 0 0 .327-1.999l-.006-.001a2 2 0 0 1-1.32-1.816v-.003a2 2 0 0 1 2-2 1 1 0 0 0 1-1 5 5 0 0 1 9.719-1.645l.011.035c.118.347.413.605.774.669h.006a3.004 3.004 0 0 1 2.466 2.953 3 3 0 0 1-1.452 2.57l-.014.008a1.003 1.003 0 1 0 1.005 1.738l-.005.002c1.499-.882 2.49-2.488 2.49-4.324v-.006a5.005 5.005 0 0 0-3.544-4.771l-.035-.01zm-3.42 9V14.5a3 3 0 1 0-6 0v1.18a3.01 3.01 0 0 0-1.977 2.82 3 3 0 0 0 2.975 3h4.001a3 3 0 0 0 1.021-5.813l-.021-.007zm-4-1.22a1 1 0 0 1 2 0v1h-2zm3 5h-4a1 1 0 0 1 0-2h4a1 1 0 0 1 0 2"/></svg>
